public/piece/Intl_Wooden_3D/0GY.svg

<?xml version="1.0" encoding="UTF-8" standalone="no"?>
<svg
   xmlns:dc="http://purl.org/dc/elements/1.1/"
   xmlns:cc="http://creativecommons.org/ns#"
   xmlns:rdf="http://www.w3.org/1999/02/22-rdf-syntax-ns#"
   xmlns:svg="http://www.w3.org/2000/svg"
   xmlns="http://www.w3.org/2000/svg"
   xmlns:xlink="http://www.w3.org/1999/xlink"
   xmlns:sodipodi="http://sodipodi.sourceforge.net/DTD/sodipodi-0.dtd"
   xmlns:inkscape="http://www.inkscape.org/namespaces/inkscape"
   viewBox="0 0 60 60"
   version="1.1"
   id="svg6315"
   sodipodi:docname="0GY.svg"
   inkscape:version="1.0.1 (3bc2e813f5, 2020-09-07)">
  <metadata
     id="metadata6319">
    <rdf:RDF>
      <cc:Work
         rdf:about="">
        <dc:format>image/svg+xml</dc:format>
        <dc:type
           rdf:resource="http://purl.org/dc/dcmitype/StillImage" />
        <dc:title></dc:title>
      </cc:Work>
    </rdf:RDF>
  </metadata>
  <sodipodi:namedview
     pagecolor="#ffffff"
     bordercolor="#666666"
     borderopacity="1"
     objecttolerance="10"
     gridtolerance="10"
     guidetolerance="10"
     inkscape:pageopacity="0"
     inkscape:pageshadow="2"
     inkscape:window-width="3840"
     inkscape:window-height="2050"
     id="namedview6317"
     showgrid="false"
     inkscape:zoom="8.4"
     inkscape:cx="66.485493"
     inkscape:cy="-21.31821"
     inkscape:window-x="-12"
     inkscape:window-y="-12"
     inkscape:window-maximized="1"
     inkscape:current-layer="svg6315" />
  <defs
     id="defs6299">
    <linearGradient
       id="a">
      <stop
         offset="0"
         stop-color="#dfb459"
         id="stop6268" />
      <stop
         offset=".041"
         stop-color="#dead54"
         id="stop6270" />
      <stop
         offset=".082"
         stop-color="#e1b85f"
         id="stop6272" />
      <stop
         offset=".165"
         stop-color="#dba84d"
         id="stop6274" />
      <stop
         offset=".305"
         stop-color="#dfb765"
         id="stop6276" />
      <stop
         offset=".539"
         stop-color="#d8a94e"
         id="stop6278" />
      <stop
         offset=".586"
         stop-color="#d5ab53"
         id="stop6280" />
      <stop
         offset=".84"
         stop-color="#e0bf6e"
         id="stop6282" />
      <stop
         offset=".924"
         stop-color="#daae52"
         id="stop6284" />
      <stop
         offset=".962"
         stop-color="#d9af57"
         id="stop6286" />
      <stop
         offset="1"
         stop-color="#e1b663"
         id="stop6288" />
    </linearGradient>
    <linearGradient
       xlink:href="#a"
       id="c"
       x1="-30.849"
       y1="30.267"
       x2="-15.094"
       y2="30.267"
       gradientUnits="userSpaceOnUse"
       spreadMethod="repeat"
       gradientTransform="translate(40.882 -.267)" />
    <filter
       id="b">
      <feGaussianBlur
         in="SourceAlpha"
         result="blur"
         stdDeviation="2"
         id="feGaussianBlur6292" />
      <feOffset
         result="offsetBlur"
         dx="2"
         dy="2"
         id="feOffset6294" />
      <feBlend
         in="SourceGraphic"
         in2="offsetBlur"
         id="feBlend6296" />
    </filter>
    <filter
       id="drop-shadow-6">
      <feGaussianBlur
         in="SourceAlpha"
         result="blur"
         stdDeviation="2"
         id="feGaussianBlur5056-9" />
      <feOffset
         result="offsetBlur"
         dx="2"
         dy="2"
         id="feOffset5058-0" />
      <feBlend
         in="SourceGraphic"
         in2="offsetBlur"
         mode="normal"
         id="feBlend5060-9" />
    </filter>
    <linearGradient
       inkscape:collect="always"
       id="linearGradient12530">
      <stop
         style="stop-color:#dfb459;stop-opacity:1"
         offset="0"
         id="stop12526" />
      <stop
         id="stop16843"
         offset="0.04123921"
         style="stop-color:#dead54;stop-opacity:1" />
      <stop
         id="stop12556"
         offset="0.08247842"
         style="stop-color:#e1b85f;stop-opacity:1" />
      <stop
         id="stop12532"
         offset="0.16495684"
         style="stop-color:#dba84d;stop-opacity:1" />
      <stop
         style="stop-color:#dfb765;stop-opacity:1"
         offset="0.3052367"
         id="stop12564" />
      <stop
         style="stop-color:#d8a94e;stop-opacity:1"
         offset="0.53886235"
         id="stop12558" />
      <stop
         id="stop12562"
         offset="0.58579648"
         style="stop-color:#d5ab53;stop-opacity:1" />
      <stop
         style="stop-color:#e0bf6e;stop-opacity:1"
         offset="0.83974683"
         id="stop12534" />
      <stop
         id="stop16845"
         offset="0.92426348"
         style="stop-color:#daae52;stop-opacity:1" />
      <stop
         id="stop12560"
         offset="0.96230692"
         style="stop-color:#d9af57;stop-opacity:1" />
      <stop
         style="stop-color:#e1b663;stop-opacity:1"
         offset="1"
         id="stop12528" />
    </linearGradient>
    <filter
       id="drop-shadow-6-3">
      <feGaussianBlur
         in="SourceAlpha"
         result="blur"
         stdDeviation="2"
         id="feGaussianBlur5056-9-5" />
      <feOffset
         result="offsetBlur"
         dx="2"
         dy="2"
         id="feOffset5058-0-8" />
      <feBlend
         in="SourceGraphic"
         in2="offsetBlur"
         mode="normal"
         id="feBlend5060-9-7" />
    </filter>
    <linearGradient
       inkscape:collect="always"
       xlink:href="#linearGradient12530"
       id="linearGradient54948-0"
       x1="-30.848997"
       y1="30.266588"
       x2="-15.094454"
       y2="30.266588"
       gradientUnits="userSpaceOnUse"
       spreadMethod="repeat" />
  </defs>
  <g
     transform="translate(41.197124,0.90176979)"
     id="g55026-2"
     style="display:inline;fill:#75581b;fill-opacity:1;filter:url(#drop-shadow-6-3)">
    <path
       style="fill:#84631f;fill-opacity:1"
       d="m 26.628906,7.1386719 -12.83789,3.6093751 -6.8652348,43.279297 -0.8144531,0.002 0.6289063,1.167969 H 46.673828 C 44.37097,40.312141 42.598822,24.647608 39.884766,11.035156 l -0.628907,-1.1699216 0.203125,1.0449216 z"
       transform="translate(-37.589704,-0.90194937)"
       id="path55024-6" />
  </g>
  <g
     style="display:inline;fill:#ffd5e5;fill-opacity:1"
     id="g5765-6"
     transform="translate(40.567924,-0.26676321)">
    <path
       style="fill:url(#linearGradient54948-0);fill-opacity:1"
       inkscape:connector-curvature="0"
       id="path5763-4"
       d="m -10.959998,6.2374999 -12.838,3.608 -7.051,44.4501771 39.9340001,-1.77e-4 c -2.3028583,-14.885125 -4.0759435,-30.550548 -6.79,-44.163 z"
       sodipodi:nodetypes="cccccc" />
  </g>
  <path
     style="display:inline;fill:#654b13;fill-opacity:1;stroke:none;stroke-width:1px;stroke-linecap:butt;stroke-linejoin:miter;stroke-opacity:1"
     d="m 9.7189255,54.028915 0.6287325,1.168173 h 39.933596 l -0.62833,-1.168346 z"
     id="path55035-5"
     inkscape:connector-curvature="0" />
  <g
     id="g1632"
     style="font-style:normal;font-variant:normal;font-weight:normal;font-stretch:normal;font-size:29.072px;line-height:1.25;font-family:PMingLiU;-inkscape-font-specification:PMingLiU;letter-spacing:0px;word-spacing:0px;display:inline;opacity:0.99;fill:#000000;fill-opacity:1;stroke:#000000;stroke-width:0.423169;stroke-miterlimit:4;stroke-dasharray:none;stroke-opacity:1"
     transform="matrix(1.1958245,0,0,1.075834,-18.284517,-24.036377)"
     aria-label="王">
    <path
       sodipodi:nodetypes="ccccccccccccccccccccc"
       inkscape:connector-curvature="0"
       id="path1630"
       style="font-style:normal;font-variant:normal;font-weight:normal;font-stretch:normal;font-family:MingLiU_HKSCS-ExtB;-inkscape-font-specification:MingLiU_HKSCS-ExtB;fill:#000000;fill-opacity:1;stroke:#000000;stroke-width:0.453165;stroke-linejoin:round;stroke-miterlimit:4;stroke-dasharray:none;stroke-opacity:1"
       d="m 41.364137,42.418759 v 8.086113 h 5.242152 l 0.83641,2.478001 h -6.078562 v 9.129483 H 51.42974 l 0.836382,2.869265 H 27.96378 l 0.836385,-2.869265 h 9.952038 V 52.982873 H 32.514892 L 33.351,50.504872 h 5.401203 V 42.418759 H 31.615795 L 30.77997,39.549494 h 18.596713 l -0.836163,2.869265 z" />
  </g>
</svg>

<svg xmlns="http://www.w3.org/2000/svg" xmlns:xlink="http://www.w3.org/1999/xlink" viewBox="0 0 60 60"><defs><linearGradient id="a"><stop offset="0" stop-color="#dfb459"/><stop offset=".041" stop-color="#dead54"/><stop offset=".082" stop-color="#e1b85f"/><stop offset=".165" stop-color="#dba84d"/><stop offset=".305" stop-color="#dfb765"/><stop offset=".539" stop-color="#d8a94e"/><stop offset=".586" stop-color="#d5ab53"/><stop offset=".84" stop-color="#e0bf6e"/><stop offset=".924" stop-color="#daae52"/><stop offset=".962" stop-color="#d9af57"/><stop offset="1" stop-color="#e1b663"/></linearGradient><linearGradient id="b"><stop style="stop-color:#dfb459;stop-opacity:1" offset="0"/><stop offset=".041" style="stop-color:#dead54;stop-opacity:1"/><stop offset=".082" style="stop-color:#e1b85f;stop-opacity:1"/><stop offset=".165" style="stop-color:#dba84d;stop-opacity:1"/><stop style="stop-color:#dfb765;stop-opacity:1" offset=".305"/><stop style="stop-color:#d8a94e;stop-opacity:1" offset=".539"/><stop offset=".586" style="stop-color:#d5ab53;stop-opacity:1"/><stop style="stop-color:#e0bf6e;stop-opacity:1" offset=".84"/><stop offset=".924" style="stop-color:#daae52;stop-opacity:1"/><stop offset=".962" style="stop-color:#d9af57;stop-opacity:1"/><stop style="stop-color:#e1b663;stop-opacity:1" offset="1"/></linearGradient><linearGradient xlink:href="#b" id="d" x1="-30.849" y1="30.267" x2="-15.094" y2="30.267" gradientUnits="userSpaceOnUse" spreadMethod="repeat"/><filter id="c"><feGaussianBlur in="SourceAlpha" result="blur" stdDeviation="2"/><feOffset result="offsetBlur" dx="2" dy="2"/><feBlend in="SourceGraphic" in2="offsetBlur"/></filter></defs><g style="display:inline;fill:#75581b;fill-opacity:1;filter:url(#c)"><path style="fill:#84631f;fill-opacity:1" d="M26.629 7.139 13.79 10.748l-6.865 43.28-.815.001.63 1.168h39.933c-2.303-14.885-4.075-30.55-6.79-44.162l-.628-1.17.203 1.045z" transform="translate(3.607)"/></g><g style="display:inline;fill:#ffd5e5;fill-opacity:1"><path style="fill:url(#d);fill-opacity:1" d="m-10.96 6.237-12.838 3.608-7.051 44.45H9.085c-2.303-14.885-4.076-30.55-6.79-44.163z" transform="translate(40.568 -.267)"/></g><path style="display:inline;fill:#654b13;fill-opacity:1;stroke:none;stroke-width:1px;stroke-linecap:butt;stroke-linejoin:miter;stroke-opacity:1" d="m9.719 54.029.629 1.168H50.28l-.628-1.168z"/><g style="font-style:normal;font-variant:normal;font-weight:400;font-stretch:normal;font-size:29.072px;line-height:1.25;font-family:PMingLiU;-inkscape-font-specification:PMingLiU;letter-spacing:0;word-spacing:0;display:inline;opacity:.99;fill:#000;fill-opacity:1;stroke:#000;stroke-width:.423169;stroke-miterlimit:4;stroke-dasharray:none;stroke-opacity:1" aria-label="王"><path style="font-style:normal;font-variant:normal;font-weight:400;font-stretch:normal;font-family:MingLiU_HKSCS-ExtB;-inkscape-font-specification:MingLiU_HKSCS-ExtB;fill:#000;fill-opacity:1;stroke:#000;stroke-width:.453165;stroke-linejoin:round;stroke-miterlimit:4;stroke-dasharray:none;stroke-opacity:1" d="M41.364 42.419v8.086h5.242l.837 2.478h-6.079v9.13H51.43l.836 2.869H27.964l.836-2.87h9.952v-9.13h-6.237l.836-2.477h5.401v-8.086h-7.136l-.836-2.87h18.597l-.836 2.87z" transform="matrix(1.19582 0 0 1.07583 -18.285 -24.036)"/></g></svg>
